!!!OTL: ES HEULT DER STURM ES BRAUST DAS MEER
!!!ARE: Europa, Mitteleuropa, Deutschland
!!!SCT: B0050
!!!YEM: Copyright 1995, estate of Helmut Schaffrath.
**kern
*ICvox
*Ivox
*M6/8
*k[]
*C:
{8A
=1
4A
8A
4A
8c
=2
4c
8c
4c}
{8c
=3
4d
8d
4c
8c
=4
4B
8B
4B}
{8c
=5
4d
8d
8c
8c
8c
=6
4.c
4B}
{8C
=7
8C
8E
8F
8G
8A
8B
=8
8c
8c
8c
4c}
{8e
=9
4e
8e
4e
8e
=10
8d
8d
8d
4d}
{8f
=11
4e
8c
8c
8d
8B
=12
4.c
4C}
{8C
=13
8C
8E
8F
8G
8A
8B
=14
8c
8c
8c
4c}
{8e
=15
4e
8e
4e
8e
=16
8d
8d
8d
4d}
{8f
=17
4e
8c
8c
8d
8B
=18
4.c
4C}
==
!!!AGN: Kriegs -, Sieges -, Soldaten - Lied
!!!ONB: ESAC (Essen Associative Code) Database: BOEHME
!!!AMT: compound duple
!!!AIN: vox
!!!EED: Helmut Schaffrath
!!!EEV: 1.0
*-
